X: 107
T:Green Grow  the Rushes O'
K:G
M:C
L:1/8
R:Strathspey
||:D|"G"G2 B>A B<G G>B|"Am"A<e e>d e<A A>d|"C"(c>d) (e>c) "G"(B>c) <d>B)
|"Am"A>c "Bm" B/A/G/F/ "Em"B<E E:||!
||:D|"G"G2 g>f g<d d>g|"Am"e<a a>^g a<e e>f|"C"g>a g<e "G"d<B G>B|"Am"A>
c "Bm"B/A/G/F "G"G<E E:||
% <A name="D1X108"></A>

